icons/glyphs/glyph-teamviewr1.svg

<?xml version="1.0" encoding="UTF-8" standalone="no"?><svg height="16" viewBox="0 0 4.2333332 4.2333332" width="16" xmlns="http://www.w3.org/2000/svg"><sodipodi:namedview/><metadata><rdf:RDF><cc:Work><dc:format>image/svg+xml</dc:format><dc:type/><dc:title/></cc:Work></rdf:RDF></metadata><path d="m2.1166665.00000002c-1.17016079 0-2.11666649.94661564-2.11666649 2.11666658 0 1.1700276.9465057 2.1166666 2.11666649 2.1166666 1.1701659 0 2.1166667-.946639 2.1166667-2.1166666 0-1.17005094-.9465008-2.11666658-2.1166667-2.11666658zm-.4884614 1.46538458v.3256411h.976923v-.3256411l.5816382.3256411.5581054.3256409-.5581054.3256411-.5816382.325641v-.325641h-.976923v.325641l-.5816382-.325641-.55810549-.3256411.55810549-.3256409z" fill="#d0d0d0" stroke-width=".264583"/></svg>

<?xml version="1.0" encoding="UTF-8" standalone="no"?>
<!-- Created with Inkscape (http://www.inkscape.org/) -->

<svg
   xmlns:dc="http://purl.org/dc/elements/1.1/"
   xmlns:cc="http://creativecommons.org/ns#"
   xmlns:rdf="http://www.w3.org/1999/02/22-rdf-syntax-ns#"
   xmlns:svg="http://www.w3.org/2000/svg"
   xmlns="http://www.w3.org/2000/svg"
   xmlns:xlink="http://www.w3.org/1999/xlink"
   xmlns:sodipodi="http://sodipodi.sourceforge.net/DTD/sodipodi-0.dtd"
   xmlns:inkscape="http://www.inkscape.org/namespaces/inkscape"
   width="16"
   height="16"
   viewBox="0 0 4.2333332 4.2333332"
   version="1.1"
   id="svg8"
   inkscape:version="0.92+devel (4546dc857e, 2017-07-25, custom)"
   sodipodi:docname="glyph-teamviewr1.svg">
  <defs
     id="defs2">
    <linearGradient
       gradientTransform="matrix(0.16282051,0,0,0.16282051,-5.4994352,-2.4782914)"
       xlink:href="#linearGradient4165"
       id="linearGradient4171"
       x1="19"
       y1="12"
       x2="29"
       y2="36"
       gradientUnits="userSpaceOnUse" />
    <linearGradient
       id="linearGradient4165">
      <stop
         style="stop-color:#ffffff;stop-opacity:1;"
         offset="0"
         id="stop7" />
      <stop
         style="stop-color:#7cafec;stop-opacity:1"
         offset="1"
         id="stop9" />
    </linearGradient>
  </defs>
  <sodipodi:namedview
     id="base"
     pagecolor="#002466"
     bordercolor="#ffffff"
     borderopacity="0.38039216"
     inkscape:pageopacity="1"
     inkscape:pageshadow="2"
     inkscape:zoom="36.415999"
     inkscape:cx="10.094581"
     inkscape:cy="7.9162778"
     inkscape:document-units="px"
     inkscape:current-layer="svg8"
     inkscape:document-rotation="0"
     showgrid="false"
     inkscape:showpageshadow="false"
     borderlayer="true"
     inkscape:window-width="1920"
     inkscape:window-height="1051"
     inkscape:window-x="0"
     inkscape:window-y="0"
     inkscape:window-maximized="1"
     units="px" />
  <metadata
     id="metadata5">
    <rdf:RDF>
      <cc:Work
         rdf:about="">
        <dc:format>image/svg+xml</dc:format>
        <dc:type
           rdf:resource="http://purl.org/dc/dcmitype/StillImage" />
        <dc:title></dc:title>
      </cc:Work>
    </rdf:RDF>
  </metadata>
  <path
     inkscape:connector-curvature="0"
     style="fill:#d0d0d0;fill-opacity:1;stroke-width:0.26458332"
     d="M 2.1166665,2e-8 C 0.94650571,2e-8 1.5e-8,0.94661566 1.5e-8,2.1166666 c 0,1.1700276 0.946505695,2.1166666 2.116666485,2.1166666 1.1701659,0 2.1166667,-0.946639 2.1166667,-2.1166666 C 4.2333332,0.94661566 3.2868324,2e-8 2.1166665,2e-8 Z M 1.6282051,1.4653846 v 0.3256411 h 0.976923 V 1.4653846 L 3.1867663,1.7910257 3.7448717,2.1166666 3.1867663,2.4423077 2.6051281,2.7679487 v -0.325641 h -0.976923 v 0.325641 L 1.0465669,2.4423077 0.48846141,2.1166666 1.0465669,1.7910257 Z"
     id="path26"
     inkscape:label="#" />
</svg>
